dist/svgs/unicons/line/align-letter-right.svg

<svg xmlns="http://www.w3.org/2000/svg" viewBox="0 0 24 24"><path d="M10 4h11a1 1 0 000-2H10a1 1 0 000 2zm11 16H3a1 1 0 000 2h18a1 1 0 000-2zm0-14H3a1 1 0 000 2h18a1 1 0 000-2zm0 10H11a1 1 0 000 2h10a1 1 0 000-2zm0-6H3a1 1 0 000 2h18a1 1 0 000-2z"/></svg>

<svg xmlns="http://www.w3.org/2000/svg" viewBox="0 0 24 24"><path d="M10,4H21a1,1,0,0,0,0-2H10a1,1,0,0,0,0,2ZM21,20H3a1,1,0,0,0,0,2H21a1,1,0,0,0,0-2ZM21,6H3A1,1,0,0,0,3,8H21a1,1,0,0,0,0-2Zm0,10H11a1,1,0,0,0,0,2H21a1,1,0,0,0,0-2Zm0-6H3a1,1,0,0,0,0,2H21a1,1,0,0,0,0-2Z"/></svg>
